src/public/icons/refer.svg

<svg viewBox="0 0 30 30" fill="none"
  xmlns="http://www.w3.org/2000/svg">
  <path d="M16.8956 9.27791C16.8956 9.42519 16.9029 9.56512 16.9176 9.69767C16.9323 9.83023 16.9544 9.96279 16.9838 10.0953L12.1787 12.4814C11.826 12.0837 11.3998 11.7744 10.9002 11.5535C10.4153 11.3178 9.88631 11.2 9.31323 11.2C8.25522 11.2 7.35151 11.5682 6.60209 12.3047C5.86736 13.0411 5.5 13.9322 5.5 14.9779C5.5 16.0531 5.86736 16.9589 6.60209 17.6953C7.35151 18.4318 8.25522 18.8 9.31323 18.8C9.88631 18.8 10.4153 18.6822 10.9002 18.4465C11.3998 18.2109 11.826 17.8942 12.1787 17.4965L16.9838 19.9047C16.9544 20.0372 16.9323 20.1698 16.9176 20.3023C16.9029 20.4349 16.8956 20.5601 16.8956 20.6779C16.8956 21.7384 17.263 22.6442 17.9977 23.3953C18.7471 24.1318 19.6435 24.5 20.6868 24.5C21.7448 24.5 22.6411 24.1318 23.3759 23.3953C24.1253 22.6442 24.5 21.7384 24.5 20.6779C24.5 19.6469 24.1253 18.7632 23.3759 18.0267C22.6411 17.2903 21.7448 16.9221 20.6868 16.9221C20.1137 16.9221 19.5773 17.0399 19.0777 17.2756C18.5928 17.4965 18.174 17.8058 17.8213 18.2035L13.0162 15.7953C13.0456 15.6628 13.0677 15.5302 13.0824 15.3977C13.0971 15.2651 13.1044 15.1252 13.1044 14.9779C13.1044 14.8601 13.0971 14.7349 13.0824 14.6023C13.0677 14.455 13.0456 14.3225 13.0162 14.2047L17.8213 11.7744C18.174 12.1721 18.5928 12.4888 19.0777 12.7244C19.5773 12.9601 20.1137 13.0779 20.6868 13.0779C21.7448 13.0779 22.6411 12.7097 23.3759 11.9733C24.1253 11.2368 24.5 10.3384 24.5 9.27791C24.5 8.2469 24.1253 7.36318 23.3759 6.62674C22.6411 5.87558 21.7448 5.5 20.6868 5.5C19.6435 5.5 18.7471 5.87558 17.9977 6.62674C17.263 7.36318 16.8956 8.2469 16.8956 9.27791Z" fill="#706b6d"/>
</svg>

<svg xmlns="http://www.w3.org/2000/svg" fill="none" viewBox="0 0 30 30"><path fill="#706b6d" d="M16.896 9.278a3.8 3.8 0 0 0 .088.817l-4.805 2.386a3.7 3.7 0 0 0-1.279-.928 3.6 3.6 0 0 0-1.587-.353q-1.587 0-2.71 1.105Q5.5 13.409 5.5 14.978q0 1.612 1.102 2.717Q7.726 18.8 9.313 18.8q.86 0 1.587-.354.75-.353 1.279-.95l4.805 2.409a3.7 3.7 0 0 0-.088.773q0 1.59 1.102 2.717 1.124 1.105 2.689 1.105 1.587 0 2.689-1.105a3.7 3.7 0 0 0 1.124-2.717q0-1.547-1.124-2.651-1.102-1.105-2.69-1.105-.859 0-1.608.354-.727.33-1.257.927l-4.805-2.408a3.7 3.7 0 0 0 .088-.817q0-.177-.022-.376a3 3 0 0 0-.066-.397l4.805-2.43q.53.596 1.257.95.75.353 1.609.353 1.587 0 2.689-1.105Q24.5 10.87 24.5 9.278q0-1.547-1.124-2.651Q22.274 5.5 20.686 5.5q-1.564 0-2.688 1.127-1.102 1.104-1.102 2.65"/></svg>
